X:53
T: ES SPIELT' EIN GRAF MIT EINER MAID
N: Z0054
O: Europa, Mitteleuropa, Deutschland
R: Sagen - Lied, Romanze,Tod
M: 4/4
L: 1/4
K: G
d2 | d2c2 | d2_e2 | =f3g | d3
=f | _e2d2 | c2_B2 | c4 | _e3
c | c2cc | d2c2 | _B3A | G3
A | _B2c2 | d2_B2 | A4 | G2

